X:247
T:Fairy Dance, The
R:Reel
S:Joyce - Old Irish Folk Music
M:C
L:1/8
K:D
f2fd f2fd|gfed cdeg|f2fd gfed|cABc d2d2|f2fd f2fd|gfed cdeg|fafd gfed|cABc
defg||
a2af b2bf|g2ge a2 ag|f2fd gfed|cABc defg|a2af b2bf|g2ge a2 ag|fagf gfed|cABc
d2d2||

